hero/solid/chevron-left.svg

<svg width="24" height="24" viewBox="0 0 24 24" fill="none" xmlns="http://www.w3.org/2000/svg">
<path fill-rule="evenodd" clip-rule="evenodd" d="M7.71967 12.5303C7.42678 12.2374 7.42678 11.7626 7.71967 11.4697L15.2197 3.96967C15.5126 3.67678 15.9874 3.67678 16.2803 3.96967C16.5732 4.26256 16.5732 4.73744 16.2803 5.03033L9.31066 12L16.2803 18.9697C16.5732 19.2626 16.5732 19.7374 16.2803 20.0303C15.9874 20.3232 15.5126 20.3232 15.2197 20.0303L7.71967 12.5303Z" fill="#0F172A"/>
</svg>

<svg viewBox="0 0 24 24" xmlns="http://www.w3.org/2000/svg"><path fill-rule="evenodd" d="M7.72 12.53H7.71c-.3-.3-.3-.77 0-1.06l7.5-7.5 -.001-.001c.28-.31.75-.32 1.06-.04 .3.28.31.75.03 1.06 -.02.01-.03.02-.04.03l-6.97 6.97 6.97 6.97 -.001 0c.3.28.31.75.03 1.06 -.29.3-.76.31-1.06.03 -.02-.02-.03-.03-.04-.04l-7.5-7.5Z"/></svg>
